X: 100
T:Muiñeira de Fonsagrada
M:6/8
L:1/8
Q:250
C:Jaime "de Cabo"
S:Rep. "Os da Puebla"
R:Muiñeira
K:C
CD | E2 C A2G | "~"FE2- ECD | EFE DCD | "~"FE2- ECD| E2C A2G | "~"FE2- E
CD |
EFE DB,D| C3 "F."G :| |: EF | EDC DEF | EDC F2E | DEF E2D | "~"E C2- CEF
| EDC DEF|
EDC F2E | DEF E2D | C4 :| |: C{D}C | F"F."cF {C}FGF | E"F."cE {C}EFE | D
"F."cD {C}DCD | "~"FE2- EC{D}C|
F"F."cF {C}FGF | ECD EFE | DB,C DED | C4 :||

